packages/web-icons/svgs/tts_2.svg

<svg viewBox="0 0 48 49" xmlns="http://www.w3.org/2000/svg" class="ridi_icon"><path d="M34.2 47.5h3c1.2 0 2.3-.2 3.4-.6l-6.4-6.4v7zm12.1-16.3c.9-2.4 1.4-5 1.4-7.7C47.7 10.7 36.8.3 23.9.3c-5.7 0-11 2.1-15 5.5l3.4 3.4c3.1-2.5 7-4.1 11.3-4.1 10.3 0 18.6 8.4 18.6 18.8 0 1-.4 1.8-.7 2.8-1.3-.6-2.7-1.1-4.3-1.1h-3v5.6l11.7 11.7c1.2-1.7 1.9-3.8 1.9-5.9v-.5c-.1-2-.7-3.8-1.5-5.3zM6.4 26.7c-.4-1-.9-1.9-.9-3 0-3.4.9-6.7 2.4-9.4l-3.5-3.5C2 14.4.6 18.8.6 23.5c0 2.6.5 5.1 1.4 7.4C1 32.5.3 34.4.3 36.4v.5c0 5.7 4.8 10.7 10.6 10.7h3v-22h-3c-1.6-.1-3.1.5-4.5 1.1zm27.8 6.8L11 10.3 7.6 6.9 2.8 2.1.5 4.5l4.9 4.9 3.4 3.4 25.4 25.4 8 8 2.1 2.1 2.4-2.3-1.9-1.9z"/></svg>

<?xml version="1.0" encoding="UTF-8"?>
<svg width="48px" height="49px" viewBox="0 0 48 49" version="1.1" xmlns="http://www.w3.org/2000/svg">
  <!-- Generator: Sketch 41.2 (35397) - http://www.bohemiancoding.com/sketch -->
  <title>tts_2</title>
  <desc>Created with Sketch.</desc>
  <defs></defs>
  <g id="Page-1" stroke="none" stroke-width="1" fill="none" fill-rule="evenodd">
    <g id="tts_2" fill="#000000">
      <g id="Layer_1">
        <g id="Group">
          <path d="M34.2,47.5 L37.2,47.5 C38.4,47.5 39.5,47.3 40.6,46.9 L34.2,40.5 L34.2,47.5 L34.2,47.5 Z" id="Shape"></path>
          <path d="M46.3,31.2 C47.2,28.8 47.7,26.2 47.7,23.5 C47.7,10.7 36.8,0.3 23.9,0.3 C18.2,0.3 12.9,2.4 8.9,5.8 L12.3,9.2 C15.4,6.7 19.3,5.1 23.6,5.1 C33.9,5.1 42.2,13.5 42.2,23.9 C42.2,24.9 41.8,25.7 41.5,26.7 C40.2,26.1 38.8,25.6 37.2,25.6 L34.2,25.6 L34.2,31.2 L45.9,42.9 C47.1,41.2 47.8,39.1 47.8,37 L47.8,36.5 C47.7,34.5 47.1,32.7 46.3,31.2 Z" id="Shape"></path>
          <path d="M6.4,26.7 C6,25.7 5.5,24.8 5.5,23.7 C5.5,20.3 6.4,17 7.9,14.3 L4.4,10.8 C2,14.4 0.6,18.8 0.6,23.5 C0.6,26.1 1.1,28.6 2,30.9 C1,32.5 0.3,34.4 0.3,36.4 L0.3,36.9 C0.3,42.6 5.1,47.6 10.9,47.6 L13.9,47.6 L13.9,25.6 L10.9,25.6 C9.3,25.5 7.8,26.1 6.4,26.7 Z" id="Shape"></path>
          <polygon id="Shape" points="34.2 33.5 11 10.3 7.6 6.9 2.8 2.1 0.5 4.5 5.4 9.4 8.8 12.8 34.2 38.2 42.2 46.2 44.3 48.3 46.7 46 44.8 44.1"></polygon>
        </g>
      </g>
    </g>
  </g>
</svg>
